assets/img/marcador.svg

<svg width="96" height="96" fill="none" xmlns="http://www.w3.org/2000/svg"><g clip-path="url(#a)"><path d="M72 8H24c-4.4 0-8 3.6-8 8v64c0 4.4 3.6 8 8 8h48c4.4 0 8-3.6 8-8V16c0-4.4-3.6-8-8-8Zm-48 8h20v32l-10-6-10 6V16Z" fill="#B8C0FF"/></g><defs><clipPath id="a"><path fill="#fff" d="M0 0h96v96H0z"/></clipPath></defs></svg>

<svg width="96" height="96" viewBox="0 0 96 96" fill="none" xmlns="http://www.w3.org/2000/svg">
<g clip-path="url(#clip0_8_12)">
<path d="M72 8H24C19.6 8 16 11.6 16 16V80C16 84.4 19.6 88 24 88H72C76.4 88 80 84.4 80 80V16C80 11.6 76.4 8 72 8ZM24 16H44V48L34 42L24 48V16Z" fill="#B8C0FF"/>
</g>
<defs>
<clipPath id="clip0_8_12">
<rect width="96" height="96" fill="white"/>
</clipPath>
</defs>
</svg>
